X:1
T: Miss Campbell of Saddell's Reel
C:R. Mackintosh
R:Reel
Q: 232
K:Dm
M:4/4
L:1/8
|:A|FD dD FA Ac|EC cG EG GA|FD fd e^c dA|BG A^c d1/2d1/2d dA|
FD dD FA Ac|EC cG EG GE|FD GE AF BG|Ad ^ce d1/2d1/2d da|
bg af ge fd|eg cg ec ge|bg af ge fd|^ce Aa fd da|
bg af ge fd|eg cg ec ge|df eg fa gb|ag fe fd d:|
